X:1     
T:All On A Misty Morning   
B:Sabine Baring Gould, 1895, Old English Songs from English Minstrelsie, 1895
F: http://www.folkinfo.org/songs
M:4/4     %Meter
L:1/8     %
K:D
(FG) |A2 A2 A2 A2 |A4 G2 A2 |B2 A2 G2 A2 | (B4B2)
w:All_ on a mist-y morn-ing, When cloud-y was the weather*
(cd) |c2 A2 A2 A2 |A4 A2 A2 |G2 E2 E2 F2 | (G4F2)
w:I_ met an old man walk-ing That cloth-ed was in lea-ther 
 (AG) |F2 D2 D2 E2 |F2 G2 A2 (GF) |E2 D2 C2 D2 | E6
w:And_ ne'er a shirt up-on his back but_ wool un-to the skin, 
 (FG) |F2 D2 D2 E2 |F2 G2 A2 (GF) |B2 A2 A2 ^G2 | A6  |]
w:With,_ how d'ye do! and how d'ye do? And_ how d'ye do? a-gain. 